packages/core/src/svgs/tokens/branded/AA.svg

<svg width="24" height="24" viewBox="0 0 24 24" fill="none" xmlns="http://www.w3.org/2000/svg">
<path d="M5.4625 10.7495L6.53333 9.08282L6.67916 9.37449L6.89583 9.08282L9.91666 14.9162H7.79166C7.72083 14.9245 7.55 14.887 7.475 14.6495C7.41667 14.4661 6.64166 12.9203 6.0125 11.687C5.94583 11.562 5.84583 11.4619 5.73333 11.4036C5.56667 11.412 5.40417 11.487 5.29166 11.6329L4.54166 12.6995H5.49583C6.1625 12.6995 6.74583 13.1536 6.74583 13.8078C6.74583 14.462 6.1625 14.9162 5.49583 14.9162H2.5125L3.90417 12.8328H3.1375C2.5125 12.8328 2 12.4162 2 11.7911C2 11.1662 2.50833 10.7495 3.1375 10.7495H5.4625ZM5.67916 14.7245C6.11666 14.6161 6.58333 14.2745 6.58333 13.8078C6.58333 13.3412 6.11666 12.9995 5.67916 12.8911C5.82955 12.9921 5.95278 13.1286 6.038 13.2885C6.1232 13.4483 6.16778 13.6267 6.16778 13.8078C6.16778 13.9889 6.1232 14.1674 6.038 14.3272C5.95278 14.487 5.82955 14.6235 5.67916 14.7245ZM4.08333 12.6995H4.28749L5.16249 11.5412C5.2375 11.4453 5.32916 11.3744 5.42499 11.3245C5.31906 11.3214 5.21389 11.3435 5.11825 11.3892C5.02259 11.4348 4.9392 11.5027 4.875 11.587L4.42917 12.1745L4.08333 12.6995ZM9.35833 14.7578H9.6625L6.87083 9.39115L6.7625 9.54116L9.35833 14.7578ZM11.1666 11.3995V12.5994H13.4166C13.6959 12.6829 13.8958 12.9536 13.8958 13.2495C13.8958 13.612 13.5875 13.8995 13.2042 13.8995H10.3333V14.9162H13.5583C14.5667 14.9162 15.3334 14.2911 15.3334 13.3328C15.3334 12.6745 14.8959 12.3078 14.5917 11.9995C14.8959 11.6912 15.3334 11.4162 15.3334 10.7245C15.3334 9.76616 14.5667 9.08282 13.5583 9.08282H10.3333V10.0995H13.2042C13.5875 10.0995 13.8958 10.4537 13.8958 10.8162C13.8958 11.1119 13.6959 11.3161 13.4125 11.3995H11.1666ZM14.325 11.9995C14.7 12.3828 15.1417 12.7495 15.1417 13.3328C15.1417 14.2078 14.3791 14.7328 13.5583 14.7328H10.525V14.0829H13.2042C13.6959 14.0829 14.0917 13.7161 14.0917 13.2495C14.0917 12.8579 13.875 12.4162 13.4458 12.4162H11.375V11.5828H13.4458C13.875 11.5828 14.0917 11.2078 14.0917 10.8162C14.0875 10.5809 13.9931 10.3562 13.8278 10.1887C13.6626 10.0212 13.4393 9.92361 13.2042 9.91615H10.525V9.26616H13.5583C14.4666 9.26616 15.1417 9.8745 15.1417 10.7245C15.1417 11.3079 14.6958 11.6245 14.325 11.9995ZM16.1667 10.8162C16.1667 9.85782 16.9917 9.08282 18.0083 9.08282H21.5833V10.1245H18.5333C18.1458 10.1245 17.8333 10.387 17.8333 10.7495C17.8333 11.0412 18.0417 11.2911 18.3208 11.3744H20.1583C20.6404 11.3766 21.1026 11.5667 21.4466 11.9044C21.7906 12.2422 21.9891 12.7009 22 13.1828C22 14.1412 21.175 14.9162 20.1583 14.9162H16.5834V13.8745H19.6333C20.0208 13.8745 20.3333 13.612 20.3333 13.2495C20.3333 12.9578 20.125 12.7079 19.8458 12.6245H18.0083C17.5262 12.6224 17.064 12.4323 16.7201 12.0946C16.3761 11.7568 16.1776 11.2981 16.1667 10.8162Z" fill="#7AEEAD"/>
</svg>

<svg xmlns="http://www.w3.org/2000/svg" width="24" height="24" fill="none" viewBox="0 0 24 24">
    <path fill="#7AEEAD" d="m5.463 10.75 1.07-1.667.146.291.217-.291 3.02 5.833H7.793c-.071.008-.242-.029-.317-.267-.058-.183-.833-1.729-1.462-2.962a.7.7 0 0 0-.28-.283.59.59 0 0 0-.441.229l-.75 1.067h.954c.666 0 1.25.454 1.25 1.108s-.584 1.108-1.25 1.108H2.512l1.392-2.083h-.766C2.513 12.833 2 12.416 2 11.79s.508-1.042 1.138-1.042zm.216 3.975c.438-.109.904-.45.904-.917s-.466-.809-.904-.917a1.104 1.104 0 0 1 0 1.834M4.083 12.7h.204l.875-1.159a.8.8 0 0 1 .263-.216.67.67 0 0 0-.55.262l-.446.588zm5.275 2.058h.304L6.871 9.39l-.109.15zm1.809-3.358v1.2h2.25a.685.685 0 0 1 .479.65c0 .362-.309.65-.692.65h-2.87v1.016h3.224c1.009 0 1.775-.625 1.775-1.583 0-.659-.437-1.025-.741-1.334.304-.308.741-.583.741-1.274 0-.959-.766-1.642-1.775-1.642h-3.225V10.1h2.871c.383 0 .692.354.692.716 0 .296-.2.5-.484.583zm3.158.6c.375.383.817.75.817 1.333 0 .875-.763 1.4-1.584 1.4h-3.033v-.65h2.68c.49 0 .887-.367.887-.834 0-.391-.217-.833-.646-.833h-2.071v-.833h2.07c.43 0 .647-.375.647-.767a.917.917 0 0 0-.888-.9h-2.679v-.65h3.033c.909 0 1.584.608 1.584 1.459 0 .583-.446.9-.817 1.274m1.842-1.184c0-.958.825-1.733 1.841-1.733h3.575v1.041h-3.05c-.387 0-.7.263-.7.625 0 .292.209.542.488.625h1.837A1.85 1.85 0 0 1 22 13.183c0 .958-.825 1.733-1.842 1.733h-3.575v-1.042h3.05c.388 0 .7-.262.7-.625a.67.67 0 0 0-.487-.625h-1.838a1.85 1.85 0 0 1-1.841-1.808"/>
</svg>
